source/img/fill.svg

<svg fill="none" height="43" viewBox="0 0 48 43" width="48" xmlns="http://www.w3.org/2000/svg"><g fill="#283645" opacity=".3"><path d="m33.12 17.88-17.88-17.88-2.83 2.83 4.76 4.76-10.29 10.29c-.5618.5625-.87736 1.325-.87736 2.12s.31556 1.5575.87736 2.12l11 11c.5625.5618 1.325.8774 2.12.8774s1.5575-.3156 2.12-.8774l11-11c.5618-.5625.8774-1.325.8774-2.12s-.3156-1.5575-.8774-2.12zm-22.71 2.12 9.59-9.58 9.59 9.58zm27.59 3s-4 4.33-4 7c0 1.0609.4214 2.0783 1.1716 2.8284.7501.7502 1.7675 1.1716 2.8284 1.1716s2.0783-.4214 2.8284-1.1716c.7502-.7501 1.1716-1.7675 1.1716-2.8284 0-2.67-4-7-4-7z"/><path d="m48 40h-48v3h48z"/></g></svg>

<svg width="48" height="43" viewBox="0 0 48 43" fill="none" xmlns="http://www.w3.org/2000/svg">
<g opacity="0.3">
<path d="M33.12 17.88L15.24 0L12.41 2.83L17.17 7.59L6.88 17.88C6.3182 18.4425 6.00264 19.205 6.00264 20C6.00264 20.795 6.3182 21.5575 6.88 22.12L17.88 33.12C18.4425 33.6818 19.205 33.9974 20 33.9974C20.795 33.9974 21.5575 33.6818 22.12 33.12L33.12 22.12C33.6818 21.5575 33.9974 20.795 33.9974 20C33.9974 19.205 33.6818 18.4425 33.12 17.88ZM10.41 20L20 10.42L29.59 20H10.41ZM38 23C38 23 34 27.33 34 30C34 31.0609 34.4214 32.0783 35.1716 32.8284C35.9217 33.5786 36.9391 34 38 34C39.0609 34 40.0783 33.5786 40.8284 32.8284C41.5786 32.0783 42 31.0609 42 30C42 27.33 38 23 38 23Z" fill="#283645"/>
<path d="M48 40H0V43H48V40Z" fill="#283645"/>
</g>
</svg>
